src/components/content/Icon/distinctive/plastics.svg

<svg width="100" height="100" viewBox="0 0 100 100" fill="none" xmlns="http://www.w3.org/2000/svg">
<path d="M69.1074 41.5145V39.5562C69.1074 35.0364 66.6845 30.5843 62.4584 27.3416L57.7491 23.7499C57.7439 23.7458 57.7376 23.7416 57.7324 23.7374C56.7772 23.0395 56.1386 22.201 55.9313 21.3916H57.6678C57.8688 21.3916 58.0324 21.2281 58.0324 21.027V19.1437C58.0345 19.1343 58.0366 19.1239 58.0366 19.1145C58.0366 19.0895 58.0355 19.0656 58.0334 19.0406V16.7937C58.0334 16.7937 58.0366 16.7843 58.0366 16.7791C58.0366 16.7635 58.0366 16.7479 58.0355 16.7322V14.5614C58.0366 12.9937 56.9168 11.7177 55.5397 11.7177H44.8866C43.5095 11.7177 42.3897 12.9937 42.3897 14.5614V21.027C42.3897 21.2281 42.5532 21.3916 42.7543 21.3916H44.4949C44.2886 22.201 43.6491 23.0395 42.6949 23.7364C42.6886 23.7406 42.6824 23.7447 42.6772 23.7499L37.9668 27.3427C33.7418 30.5843 31.3188 35.0364 31.3188 39.5562V41.5145C31.3188 42.6593 31.9001 43.7395 33.0011 44.6385V68.2812C32.0157 69.0624 31.4324 70.1854 31.4324 71.3197V81.0354C31.4324 84.0031 33.3084 86.0979 36.7147 86.9333L36.7522 86.9426C38.1241 87.2812 41.3053 87.4531 46.2199 87.4531C46.4345 87.4531 46.6522 87.4531 46.873 87.452H47.298C47.4959 87.452 47.698 87.452 47.9032 87.4499C48.0032 87.451 48.1032 87.452 48.2074 87.452C48.4105 87.452 48.622 87.4499 48.8418 87.4458C48.9011 87.4447 48.9438 87.4437 48.9668 87.4437C48.9897 87.4437 49.0126 87.4406 49.0345 87.4364C49.1293 87.4458 49.2293 87.451 49.3376 87.451C49.4084 87.451 49.4834 87.4489 49.5605 87.4447H49.5834C49.5834 87.4447 49.5866 87.4426 49.5886 87.4426C49.6147 87.4489 49.6418 87.452 49.6699 87.452H50.7563C50.7834 87.452 50.8105 87.4489 50.8366 87.4426H50.8657C50.9428 87.4489 51.0178 87.451 51.0886 87.451C51.197 87.451 51.298 87.4458 51.3918 87.4364C51.4136 87.4406 51.4366 87.4437 51.4595 87.4437C51.4824 87.4437 51.5251 87.4437 51.5845 87.4458C51.8043 87.4499 52.0157 87.452 52.2188 87.452C52.323 87.452 52.423 87.452 52.523 87.4499C52.7282 87.451 52.9313 87.452 53.1293 87.452H53.5543C53.7751 87.452 53.9939 87.4531 54.2084 87.4531C59.123 87.4531 62.3043 87.2822 63.6761 86.9426L63.7136 86.9333C67.1199 86.0968 68.9959 84.002 68.9959 81.0354V71.3197C68.9959 70.1854 68.4126 69.0614 67.4272 68.2812V44.6385C68.5282 43.7385 69.1095 42.6593 69.1095 41.5145H69.1074ZM43.1178 16.7802C43.1178 16.0124 43.9116 15.3885 44.8855 15.3885H55.5386C56.5043 15.3885 57.2897 16.001 57.3053 16.7583V17.9989C56.8553 17.7197 56.2345 17.5499 55.5386 17.5499H44.8855C44.1886 17.5499 43.5657 17.7208 43.1178 17.9999V16.7802ZM44.8855 12.4479H55.5386C56.5136 12.4479 57.3064 13.3968 57.3064 14.5624V15.2843C56.8532 14.8989 56.2282 14.6604 55.5386 14.6604H44.8855C44.1949 14.6604 43.5699 14.8999 43.1178 15.2854V14.5635C43.1178 13.3979 43.9116 12.4489 44.8855 12.4489V12.4479ZM43.1178 19.1156C43.1178 18.7208 43.8741 18.2791 44.8855 18.2791H55.5386C56.5293 18.2791 57.273 18.702 57.3043 19.0906V20.6635H43.1178V19.1156ZM61.7574 68.4645C61.7574 68.5583 61.7939 68.6479 61.8584 68.7156C62.4814 69.3645 62.8532 70.3385 62.8532 71.3208V81.0364C62.8532 83.6531 61.698 85.4999 59.5991 86.2364L59.572 86.2458C59.1199 86.4052 58.1584 86.5802 56.1355 86.6676C57.2418 85.7041 57.848 83.726 57.848 81.0354V71.3197C57.848 70.2124 57.6397 69.1468 57.2751 68.377V44.5406C57.2782 44.5343 57.2813 44.5281 57.2845 44.5208C57.6803 43.6427 57.8897 42.602 57.8897 41.5124V39.5541C57.8897 35.0968 57.0105 30.6937 55.4761 27.4729L53.7522 23.8749C53.3886 23.1499 53.147 22.2593 53.073 21.3906H53.7136C53.8574 22.4062 54.3876 23.4489 55.1959 24.2916L55.1991 24.2947L58.4813 27.876C61.3105 30.9822 62.9334 35.2385 62.9334 39.5552V41.5135C62.9334 42.4177 62.6178 43.2812 62.0188 44.0218C61.9434 44.0442 61.8772 44.0904 61.8301 44.1535C61.783 44.2165 61.7575 44.2931 61.7574 44.3718V68.4635V68.4645ZM50.7553 86.727H49.6636C49.6376 86.7208 49.6105 86.7177 49.5824 86.7177C49.5699 86.7177 49.548 86.7177 49.5168 86.7208C48.7834 86.7635 48.5678 86.5562 48.5043 86.4291C48.5043 86.4291 48.4991 86.4197 48.4991 86.4187C48.3261 86.0729 47.923 84.8552 47.923 81.0374V71.3218C47.923 70.2666 47.9928 69.2208 48.1105 68.5239C48.1136 68.5041 48.1157 68.4833 48.1157 68.4635V44.3739C48.1157 44.3208 48.1043 44.2697 48.0834 44.2239C47.9688 43.4302 47.9095 42.4958 47.9095 41.5156V39.5572C47.9095 35.1697 48.1991 30.8447 48.7032 27.6906L49.2813 24.101C49.4147 23.3083 49.5022 22.3364 49.5282 21.3927H50.897C50.922 22.3374 51.0095 23.3093 51.1428 24.0989L51.7209 27.6906C52.2251 30.8447 52.5147 35.1697 52.5147 39.5572V41.5156C52.5147 42.4968 52.4543 43.4302 52.3407 44.2239C52.3199 44.2697 52.3084 44.3208 52.3084 44.3739V68.4645C52.3084 68.4843 52.3105 68.5041 52.3136 68.5239C52.4313 69.2197 52.5011 70.2656 52.5011 71.3218V81.0374C52.5011 84.8552 52.098 86.0729 51.9251 86.4187C51.9251 86.4187 51.9199 86.4281 51.9199 86.4291C51.8563 86.5562 51.6407 86.7635 50.9074 86.7208C50.8761 86.7187 50.8543 86.7177 50.8418 86.7177C50.8136 86.7177 50.7866 86.7218 50.7605 86.727H50.7553ZM38.4063 44.0229C37.8074 43.2822 37.4918 42.4187 37.4918 41.5145V39.5562C37.4918 35.2406 39.1147 30.9843 41.9428 27.8781L45.2261 24.2958L45.2293 24.2927C46.0376 23.451 46.5678 22.4072 46.7116 21.3916H47.3522C47.2782 22.2614 47.0366 23.152 46.6699 23.8822L44.948 27.4749C43.4147 30.6947 42.5355 35.0979 42.5355 39.5562V41.5145C42.5355 42.6041 42.7449 43.6447 43.1407 44.5229L43.1501 44.5416V68.3781C42.7855 69.1479 42.5772 70.2135 42.5772 71.3208V81.0364C42.5772 83.727 43.1824 85.7052 44.2897 86.6687C42.2668 86.5812 41.3053 86.4062 40.8532 86.2468L40.8261 86.2374C38.7272 85.4999 37.572 83.6531 37.572 81.0374V71.3218C37.572 70.3385 37.9438 69.3645 38.5668 68.7166C38.6313 68.6489 38.6678 68.5593 38.6678 68.4656V44.3739C38.6678 44.2083 38.5574 44.0687 38.4063 44.0239V44.0229ZM47.3772 44.4281C47.3793 44.4437 47.3824 44.4593 47.3876 44.4739V68.4333C47.2647 69.177 47.1949 70.227 47.1949 71.3218V81.0374C47.1949 83.8822 47.4157 85.8427 47.8366 86.7208H47.7199C45.8751 86.6843 45.2199 86.4447 44.9886 86.2885L44.9741 86.2781C43.9147 85.5666 43.3063 83.6552 43.3063 81.0364V71.3208C43.3063 70.2999 43.5063 69.2927 43.8407 68.626C43.8657 68.576 43.8793 68.5197 43.8793 68.4635V44.3729C43.8793 44.2604 43.8293 44.1604 43.7491 44.0937C43.4313 43.3364 43.2647 42.4479 43.2647 41.5145V39.5562C43.2647 35.2031 44.1178 30.9145 45.6063 27.7895L47.3251 24.2041C47.7376 23.3822 48.0074 22.3718 48.0834 21.3927H48.8001C48.7751 22.2968 48.6907 23.2249 48.5636 23.9833L47.9855 27.5749C47.4751 30.7656 47.1824 35.1333 47.1824 39.5562V41.5145C47.1824 42.5708 47.2501 43.5781 47.3793 44.427L47.3772 44.4281ZM52.3428 21.3927C52.4188 22.3718 52.6876 23.3822 53.098 24.1979L54.8188 27.7885C56.3074 30.9135 57.1605 35.2031 57.1605 39.5562V41.5145C57.1605 42.4479 56.9928 43.3354 56.6761 44.0937C56.597 44.1604 56.5459 44.2604 56.5459 44.3729V68.4635C56.5459 68.5197 56.5595 68.576 56.5845 68.626C56.9188 69.2927 57.1189 70.2999 57.1189 71.3208V81.0364C57.1189 83.6562 56.5116 85.5666 55.4511 86.2781L55.4366 86.2885C55.2063 86.4447 54.5532 86.6833 52.7105 86.7208H52.5886C53.0084 85.8541 53.2303 83.8916 53.2303 81.0374V71.3218C53.2303 70.226 53.1605 69.176 53.0376 68.4333V44.4739C53.0418 44.4593 53.0449 44.4437 53.048 44.4281C53.1761 43.5791 53.2449 42.5718 53.2449 41.5156V39.5572C53.2449 35.1333 52.9522 30.7666 52.4418 27.5749L51.8636 23.9802C51.7366 23.226 51.6522 22.2979 51.6272 21.3927H52.3438H52.3428ZM36.8876 86.2281C35.122 85.7947 32.1605 84.5437 32.1605 81.0374V71.3218C32.1605 70.3635 32.6907 69.4052 33.5793 68.7583C33.673 68.6895 33.7282 68.5812 33.7293 68.4656V44.3739C33.7293 44.1781 33.5761 44.0187 33.3824 44.0093C32.5084 43.2677 32.047 42.4072 32.047 41.5156V39.5572C32.047 35.2656 34.3657 31.0249 38.4095 27.9229L43.1074 24.3395C43.1074 24.3395 43.1116 24.3364 43.1126 24.3354C44.2751 23.4885 45.0366 22.4291 45.2397 21.3927H45.9741C45.8313 22.2229 45.3834 23.077 44.7116 23.7791L44.697 23.7937L41.4043 27.3864C38.4543 30.6249 36.7626 35.0614 36.7626 39.5562V41.5145C36.7626 42.6374 37.1688 43.7041 37.9386 44.5999V68.3197C37.2407 69.1052 36.8428 70.1906 36.8428 71.3208V81.0364C36.8428 84.3208 38.4386 85.8593 39.7824 86.5729C38.2543 86.4781 37.4001 86.3531 36.9251 86.2364L36.8866 86.227L36.8876 86.2281ZM66.697 68.4645C66.697 68.5802 66.7532 68.6895 66.847 68.7572C67.7355 69.4041 68.2657 70.3624 68.2657 71.3208V81.0364C68.2657 84.5426 65.3043 85.7937 63.5386 86.227L63.5001 86.2364C63.0272 86.3531 62.1751 86.4781 60.6532 86.5729C61.0386 86.3666 61.5001 86.0604 61.9438 85.6072C63.0313 84.4947 63.5834 82.9572 63.5834 81.0364V71.3208C63.5834 70.1906 63.1855 69.1062 62.4866 68.3197V44.5999C63.2563 43.7031 63.6626 42.6364 63.6626 41.5145V39.5562C63.6626 35.0614 61.9709 30.6249 59.0199 27.3854L55.7282 23.7937C55.7282 23.7937 55.7188 23.7833 55.7136 23.7791C55.0418 23.076 54.5938 22.2229 54.4511 21.3927H55.1855C55.3886 22.4291 56.1511 23.4885 57.3136 24.3354C57.3147 24.3364 57.3168 24.3374 57.3178 24.3385L62.0157 27.9218C66.0595 31.0249 68.3782 35.2656 68.3782 39.5572V41.5156C68.3782 42.4072 67.9168 43.2677 67.0428 44.0093C66.9493 44.014 66.8611 44.0544 66.7965 44.1223C66.732 44.1902 66.696 44.2802 66.6959 44.3739V68.4656L66.697 68.4645Z" fill="#0B301A"/>
</svg>

<svg xmlns="http://www.w3.org/2000/svg" width="100" height="100" fill="none" viewBox="0 0 100 100"><path fill="#0b301a" d="M69.107 41.515v-1.959c0-4.52-2.422-8.972-6.649-12.214L57.75 23.75l-.017-.013c-.955-.697-1.593-1.536-1.8-2.345h1.736a.365.365 0 0 0 .364-.365v-1.883l.005-.03-.004-.073v-2.247s.004-.01.004-.015q0-.023-.002-.047v-2.17c.002-1.568-1.118-2.844-2.495-2.844H44.887c-1.377 0-2.497 1.276-2.497 2.843v6.466c0 .201.163.365.364.365h1.74c-.205.809-.845 1.648-1.8 2.344l-.017.014-4.71 3.593c-4.225 3.241-6.648 7.693-6.648 12.213v1.959c0 1.144.581 2.224 1.682 3.124V68.28c-.985.781-1.569 1.904-1.569 3.039v9.715c0 2.968 1.876 5.063 5.283 5.898l.037.01c1.372.338 4.553.51 9.468.51l.653-.001h.425q.297 0 .605-.002a27 27 0 0 0 .939-.004l.125-.002a.4.4 0 0 0 .068-.008 3 3 0 0 0 .526.009h.022l.006-.002q.04.009.08.009h1.087a.3.3 0 0 0 .08-.01h.03q.116.01.223.009.162 0 .303-.015a.4.4 0 0 0 .067.008q.036 0 .125.002.33.006.635.006.155 0 .304-.002l.606.002h.425l.654.001c4.915 0 8.096-.17 9.468-.51l.038-.01c3.406-.836 5.282-2.931 5.282-5.898V71.32c0-1.135-.583-2.259-1.569-3.039V44.638c1.101-.9 1.682-1.979 1.682-3.123zM43.117 16.78c0-.768.795-1.392 1.769-1.392h10.653c.965 0 1.75.613 1.766 1.37v1.24c-.45-.278-1.07-.448-1.766-.448H44.885c-.696 0-1.32.17-1.767.45zm1.769-4.332h10.653c.975 0 1.767.949 1.767 2.114v.722a2.73 2.73 0 0 0-1.767-.624H44.885c-.69 0-1.315.24-1.767.625v-.722c0-1.165.794-2.114 1.767-2.114zm-1.768 6.668c0-.395.756-.837 1.767-.837H55.54c.99 0 1.734.423 1.765.812v1.572H43.118zm18.64 49.349c0 .093.036.183.1.25.623.65.995 1.623.995 2.606v9.715c0 2.617-1.155 4.464-3.254 5.2l-.027.01c-.452.16-1.414.334-3.437.422 1.107-.964 1.713-2.942 1.713-5.633V71.32c0-1.108-.208-2.173-.573-2.943V44.541l.01-.02c.395-.878.605-1.919.605-3.009v-1.958c0-4.457-.88-8.86-2.414-12.081l-1.724-3.598c-.363-.725-.605-1.616-.679-2.484h.64c.144 1.015.675 2.058 1.483 2.9l.003.004 3.282 3.581c2.83 3.106 4.452 7.363 4.452 11.68v1.958c0 .904-.315 1.767-.914 2.508a.365.365 0 0 0-.262.35v24.093M50.754 86.727h-1.091a.4.4 0 0 0-.082-.01q-.018-.001-.065.004c-.734.042-.95-.165-1.013-.292l-.005-.01c-.173-.346-.576-1.564-.576-5.382v-9.715c0-1.055.07-2.101.188-2.798a.4.4 0 0 0 .005-.06v-24.09a.4.4 0 0 0-.033-.15 19.4 19.4 0 0 1-.173-2.708v-1.959c0-4.387.29-8.712.793-11.866l.578-3.59c.134-.793.221-1.765.247-2.708h1.369c.025.944.113 1.916.246 2.706l.578 3.592c.504 3.154.794 7.479.794 11.866v1.959c0 .98-.06 1.914-.174 2.708a.4.4 0 0 0-.033.15v24.09q0 .03.006.06c.117.696.187 1.742.187 2.798v9.715c0 3.818-.403 5.036-.576 5.382l-.005.01c-.064.127-.28.334-1.013.292l-.065-.003a.4.4 0 0 0-.081.009zM38.406 44.023c-.599-.74-.914-1.604-.914-2.509v-1.958c0-4.315 1.623-8.572 4.45-11.678l3.284-3.582.003-.003c.809-.842 1.339-1.886 1.483-2.901h.64a7 7 0 0 1-.682 2.49l-1.722 3.593c-1.533 3.22-2.413 7.623-2.413 12.081v1.959c0 1.09.21 2.13.606 3.008l.01.019v23.836c-.366.77-.574 1.835-.574 2.943v9.715c0 2.691.605 4.67 1.713 5.633-2.023-.088-2.985-.263-3.437-.422l-.027-.01c-2.099-.737-3.254-2.584-3.254-5.2v-9.715c0-.984.372-1.957.995-2.605a.36.36 0 0 0 .1-.251V44.374a.365.365 0 0 0-.26-.35zm8.971.405a.2.2 0 0 0 .01.046v23.96c-.122.743-.192 1.793-.192 2.888v9.715c0 2.845.22 4.806.642 5.684h-.117c-1.845-.037-2.5-.276-2.731-.433l-.015-.01c-1.06-.711-1.668-2.623-1.668-5.242v-9.715c0-1.021.2-2.028.535-2.695a.4.4 0 0 0 .038-.163v-24.09a.36.36 0 0 0-.13-.28c-.318-.757-.484-1.645-.484-2.579v-1.958c0-4.353.853-8.641 2.341-11.766l1.72-3.586c.412-.822.681-1.832.757-2.811h.717a20 20 0 0 1-.236 2.59l-.578 3.592c-.51 3.19-.804 7.558-.804 11.981v1.959c0 1.056.068 2.063.197 2.912zm4.966-23.035c.076.979.345 1.99.755 2.805l1.72 3.59c1.49 3.125 2.343 7.415 2.343 11.768v1.959c0 .933-.168 1.82-.485 2.579a.36.36 0 0 0-.13.279v24.09q.001.087.038.163c.335.667.535 1.674.535 2.695v9.715c0 2.62-.607 4.53-1.668 5.242l-.014.01c-.23.157-.884.395-2.726.433h-.122c.42-.867.641-2.83.641-5.684v-9.715c0-1.096-.07-2.146-.192-2.889v-23.96l.01-.045c.128-.849.197-1.856.197-2.912v-1.959c0-4.424-.293-8.79-.803-11.982l-.578-3.595a19.5 19.5 0 0 1-.237-2.587zM36.888 86.228c-1.766-.433-4.727-1.684-4.727-5.19v-9.716c0-.959.53-1.917 1.418-2.564a.37.37 0 0 0 .15-.292V44.374a.364.364 0 0 0-.347-.365c-.874-.741-1.335-1.602-1.335-2.493v-1.959c0-4.291 2.319-8.532 6.363-11.634l4.697-3.583.006-.005c1.162-.847 1.924-1.906 2.127-2.942h.734c-.143.83-.59 1.684-1.262 2.386l-.015.015-3.293 3.592c-2.95 3.239-4.641 7.675-4.641 12.17v1.959c0 1.122.406 2.19 1.176 3.085v23.72c-.698.785-1.096 1.87-1.096 3v9.716c0 3.285 1.596 4.823 2.94 5.537-1.529-.095-2.383-.22-2.858-.337l-.038-.009zm29.809-17.763c0 .115.056.224.15.292.889.647 1.419 1.605 1.419 2.564v9.715c0 3.507-2.962 4.758-4.727 5.191l-.039.01c-.473.116-1.325.241-2.847.336a5.3 5.3 0 0 0 1.29-.966c1.088-1.112 1.64-2.65 1.64-4.57V71.32c0-1.13-.398-2.215-1.096-3.001V44.6c.77-.897 1.176-1.964 1.176-3.086v-1.958c0-4.495-1.692-8.931-4.643-12.17l-3.292-3.592-.014-.015c-.672-.703-1.12-1.556-1.263-2.386h.734c.204 1.036.966 2.095 2.129 2.942l.004.003 4.698 3.584c4.044 3.103 6.362 7.344 6.362 11.635v1.959c0 .891-.461 1.752-1.335 2.493a.365.365 0 0 0-.347.365v24.092z"/></svg>
